src/renderer/assets/svg/icon-remove.svg

<svg width="20" height="21" viewBox="0 0 20 21" fill="none" xmlns="http://www.w3.org/2000/svg">
<path fill-rule="evenodd" clip-rule="evenodd" d="M10 0.614014C4.48 0.614014 0 5.09401 0 10.614C0 16.134 4.48 20.614 10 20.614C15.52 20.614 20 16.134 20 10.614C20 5.09401 15.52 0.614014 10 0.614014ZM2 10.614C2 6.19401 5.58 2.61401 10 2.61401C11.85 2.61401 13.55 3.24401 14.9 4.30401L3.69 15.514C2.63 14.164 2 12.464 2 10.614ZM5.1 16.924C6.45 17.984 8.15 18.614 10 18.614C14.42 18.614 18 15.034 18 10.614C18 8.76401 17.37 7.06401 16.31 5.71401L5.1 16.924Z" fill="#FF4954"/>
</svg>

<svg xmlns="http://www.w3.org/2000/svg" width="20" height="21" fill="none" viewBox="0 0 20 21"><path fill="#FF4954" fill-rule="evenodd" d="M10 .614c-5.52 0-10 4.48-10 10s4.48 10 10 10 10-4.48 10-10-4.48-10-10-10m-8 10c0-4.42 3.58-8 8-8 1.85 0 3.55.63 4.9 1.69L3.69 15.514a7.902 7.902 0 0 1-1.69-4.9m3.1 6.31a7.902 7.902 0 0 0 4.9 1.69c4.42 0 8-3.58 8-8 0-1.85-.63-3.55-1.69-4.9z" clip-rule="evenodd"/></svg>
